svgs/regular/snowplow.svg

<svg xmlns="http://www.w3.org/2000/svg" viewBox="0 0 640 512"><!--! Font Awesome Pro 6.0.0-alpha3 by @fontawesome - https://fontawesome.com License - https://fontawesome.com/license (Commercial License) --><path d="M200 376c-13.25 0-24 10.75-24 23.1s10.75 23.97 24 23.97s23.97-10.75 23.97-24S213.3 376 200 376zM120 376c-13.25 0-24 10.75-24 24s10.75 23.97 24 23.97s23.97-10.75 23.97-24S133.3 376 120 376zM280 376c-13.25 0-24 10.75-24 24s10.75 23.97 24 23.97s23.97-10.75 23.97-23.1S293.3 376 280 376zM360 376c-13.25 0-24 10.75-24 24s10.75 23.97 24 23.97s23.97-10.75 23.97-24S373.3 376 360 376zM577.1 417.6c-7.451-7.467-11.63-17.59-11.63-28.13V250.7c0-10.65 4.225-20.87 11.75-28.41l54.9-53.36c9.336-9.357 9.328-24.51-.0195-33.86c-9.346-9.348-24.51-9.367-33.87-.0313l-54.88 53.12c-16.57 16.53-25.88 38.97-25.88 62.38v45.5L432 296V237.1c0-8.75-1.75-17.25-5.25-25.25L348.5 29.12C340.9 11.38 323.6 0 304.3 0H160C133.5 0 112 21.5 112 48V128H96C69.5 128 48 149.5 48 176v132.3C19 328.5 0 362 0 400C0 461.9 50.13 512 112 512h256c61.88 0 112-50.13 112-112c0-20.5-5.884-39.5-15.51-56l53.86-.0039v45.5c0 23.4 9.311 45.85 25.88 62.38l54.87 53.12c9.363 9.344 24.53 9.334 33.88-.0195c9.348-9.348 9.355-24.5 .0195-33.86L577.1 417.6zM160 48h144.4l65.13 152H220.6L160 112.5V48zM96 176h49.63l42.63 61.75C192.8 244.3 200.1 248 208 248H384v41.63c-5.25-.875-10.49-1.619-15.99-1.619h-256c-5.5 0-10.75 .8691-16 1.619V176zM368 464h-256c-35.25 0-64-28.75-64-64s28.75-64 64-64h256c35.25 0 64 28.75 64 64S403.3 464 368 464z"/></svg>

<svg xmlns="http://www.w3.org/2000/svg" viewBox="0 0 640 512"><!-- Font Awesome Pro 6.0.0-alpha2 by @fontawesome - https://fontawesome.com License - https://fontawesome.com/license (Commercial License) --><path d="M200 376C186.75 376 176 386.75 176 400S186.75 424 200 424S224 413.25 224 400S213.25 376 200 376ZM120 376C106.75 376 96 386.75 96 400S106.75 424 120 424S144 413.25 144 400S133.25 376 120 376ZM280 376C266.75 376 256 386.75 256 400S266.75 424 280 424S304 413.25 304 400S293.25 376 280 376ZM360 376C346.75 376 336 386.75 336 400S346.75 424 360 424S384 413.25 384 400S373.25 376 360 376ZM577.99 417.631C570.539 410.164 566.355 400.045 566.355 389.496V250.658C566.355 240.006 570.58 229.787 578.105 222.246L633.004 168.885C642.34 159.527 642.332 144.375 632.984 135.027L632.971 135.016C623.625 125.668 608.473 125.66 599.115 134.996L544.234 188.117C527.666 204.648 518.355 227.092 518.355 250.496V295.996L432 296V237.125C432 228.375 430.25 219.875 426.75 211.875L348.5 29.125C340.875 11.375 323.625 0 304.25 0H160C133.5 0 112 21.5 112 48V128H96C69.5 128 48 149.5 48 176V308.25C19 328.5 0 362 0 400C0 461.875 50.125 512 112 512H368C429.875 512 480 461.875 480 400C480 379.5 474.125 360.5 464.5 344L518.355 343.996V389.496C518.355 412.9 527.666 435.344 544.234 451.875L599.104 504.998C608.467 514.342 623.631 514.332 632.984 504.979C642.332 495.631 642.34 480.48 633.004 471.123L577.99 417.631ZM160 48H304.375L369.5 200H220.625L160 112.5V48ZM96 176H145.625L188.25 237.75C192.75 244.25 200.125 248 208 248H384V289.625C378.75 288.75 373.5 288 368 288H112C106.5 288 101.25 288.875 96 289.625V176ZM368 464H112C76.75 464 48 435.25 48 400S76.75 336 112 336H368C403.25 336 432 364.75 432 400S403.25 464 368 464Z"/></svg>
